assets/svg/other-pay.svg

<?xml version="1.0" encoding="UTF-8"?>
<svg width="1000px" height="1000px" viewBox="0 0 1000 1000" version="1.1" xmlns="http://www.w3.org/2000/svg" xmlns:xlink="http://www.w3.org/1999/xlink">
    <!-- Generator: sketchtool 52.4 (67378) - http://www.bohemiancoding.com/sketch -->
    <title>other-pay</title>
    <desc>Created with sketchtool.</desc>
    <g id="新版图标" stroke="none" stroke-width="1" fill="none" fill-rule="evenodd">
        <g id="other-pay" fill="#323233">
            <g id="圆角-其他支付方式-线">
                <path d="M888.888889,166.666667 C919.555556,166.666667 944.444444,191.555556 944.444444,222.222222 L944.444444,777.777778 C944.444444,808.444444 919.555556,833.333333 888.888889,833.333333 L111.111111,833.333333 C80.4444444,833.333333 55.5555556,808.444444 55.5555556,777.777778 L55.5555556,222.222222 C55.5555556,191.555556 80.4444444,166.666667 111.111111,166.666667 L888.888889,166.666667 Z M111.111111,777.777778 L888.888889,777.777778 L888.888889,222.222222 L111.111111,222.222222 L111.111111,777.777778 Z M333.044444,537.038889 C356.044444,537.038889 374.711111,518.372222 374.711111,495.372222 C374.711111,472.372222 356.044444,453.705556 333.044444,453.705556 C310.044444,453.705556 291.377778,472.372222 291.377778,495.372222 C291.377778,518.372222 310.044444,537.038889 333.044444,537.038889 M499.711111,537.038889 C522.711111,537.038889 541.377778,518.372222 541.377778,495.372222 C541.377778,472.372222 522.711111,453.705556 499.711111,453.705556 C476.711111,453.705556 458.044444,472.372222 458.044444,495.372222 C458.044444,518.372222 476.711111,537.038889 499.711111,537.038889 M666.377778,537.038889 C689.377778,537.038889 708.044444,518.372222 708.044444,495.372222 C708.044444,472.372222 689.377778,453.705556 666.377778,453.705556 C643.377778,453.705556 624.711111,472.372222 624.711111,495.372222 C624.711111,518.372222 643.377778,537.038889 666.377778,537.038889" id="Fill-1"></path>
            </g>
        </g>
    </g>
</svg>

<svg width="1000" height="1000" xmlns="http://www.w3.org/2000/svg"><path d="M888.889 166.667c30.667 0 55.555 24.889 55.555 55.555v555.556c0 30.666-24.888 55.555-55.555 55.555H111.11c-30.667 0-55.555-24.889-55.555-55.555V222.222c0-30.666 24.888-55.555 55.555-55.555H888.89zM111.11 777.777H888.89V222.223H111.11v555.556zM333.044 537.04c23 0 41.667-18.667 41.667-41.667s-18.667-41.666-41.667-41.666-41.666 18.666-41.666 41.666c0 23 18.666 41.667 41.666 41.667m166.667 0c23 0 41.667-18.667 41.667-41.667s-18.667-41.666-41.667-41.666-41.667 18.666-41.667 41.666c0 23 18.667 41.667 41.667 41.667m166.667 0c23 0 41.666-18.667 41.666-41.667s-18.666-41.666-41.666-41.666c-23 0-41.667 18.666-41.667 41.666 0 23 18.667 41.667 41.667 41.667" fill="#323233" fill-rule="evenodd"/></svg>
